assets/svgs/illustration-borrowing-books.svg

<svg width="200" height="160" viewBox="0 0 200 160" fill="none" xmlns="http://www.w3.org/2000/svg" class="svg__illustration-borrowing-books">
<path d="M47.0576 126.249L113.24 126.249" stroke="#00E0E0" stroke-width="1.5" class="svg__stroke--help-green-03"/>
<path d="M118.756 126.249L130.79 126.249" stroke="#00E0E0" stroke-width="1.5" class="svg__stroke--help-green-03"/>
<path d="M135.802 126.249L139.813 126.249" stroke="#00E0E0" stroke-width="1.5" class="svg__stroke--help-green-03"/>
<path d="M84.5411 144.674L85.6365 145.243V144.009V127V126.25H84.8865H68.1016H67.3516V127V144.009V145.243L68.4469 144.674L76.494 140.5L84.5411 144.674Z" fill="#0AA5FF" stroke="#0AA5FF" stroke-width="1.5" stroke-linecap="square" class="svg__fill--default-cyan-03 svg__stroke--default-cyan-03"/>
<path fill-rule="evenodd" clip-rule="evenodd" d="M179.744 154.844C179.86 154.888 179.921 154.91 179.921 154.91H176.398H44.5507C33.196 154.91 23.9912 145.705 23.9912 134.35C23.9912 122.996 33.196 113.791 44.5507 113.791H176.398H179.921C179.921 113.791 178.618 114.242 176.792 115.291C172.519 117.745 165.381 123.473 165.381 134.35C165.381 145.132 172.394 150.854 176.679 153.344H186.442V154.844H179.744ZM171.66 151.578C172.45 152.273 173.24 152.882 173.996 153.41H44.5507C34.0244 153.41 25.4912 144.876 25.4912 134.35C25.4912 123.824 34.0244 115.291 44.5507 115.291H173.996C173.24 115.819 172.45 116.427 171.66 117.123C167.788 120.531 163.881 126.054 163.881 134.35C163.881 142.647 167.788 148.17 171.66 151.578Z" fill="#0B6AB7" class="svg__fill--primary-blue-03"/>
<path d="M37.0796 6.65527H172.154C176.158 6.65527 179.404 9.90121 179.404 13.9053V104.554H29.8296V13.9053C29.8296 9.90121 33.0755 6.65527 37.0796 6.65527Z" stroke="#0B6AB7" stroke-width="1.5" class="svg__stroke--primary-blue-03"/>
<path d="M38.0488 11.2078H171.19C172.985 11.2078 174.44 12.6628 174.44 14.4578V100H34.7988V14.4578C34.7988 12.6628 36.2539 11.2078 38.0488 11.2078Z" stroke="#0AA5FF" stroke-width="1.5" class="svg__stroke-default-cyan-03"/>
<path d="M11.2939 104.671H197.114V107.303C197.114 111.307 193.868 114.553 189.864 114.553H18.544C14.5399 114.553 11.2939 111.307 11.2939 107.303V104.671Z" stroke="#0B6AB7" stroke-width="1.5" class="svg__stroke--primary-blue-03"/>
<path d="M44.1621 35.6443L59.5783 20.2281" stroke="#00E0E0" stroke-width="1.5" class="svg__stroke-help-green-03"/>
<path d="M44.9414 28.7056L52.6495 20.9975" stroke="#00E0E0" stroke-width="1.5" class="svg__stroke-help-green-03"/>
<path d="M44.4175 23.053L46.9868 20.4836" stroke="#00E0E0" stroke-width="1.5" class="svg__stroke-help-green-03"/>
<path d="M174.189 13.8899L144.693 26.1078L132.475 55.6044L144.693 85.101L174.189 97.3189" stroke="#FFD600" stroke-width="1.5" class="svg__stroke--secondary-yellow-03"/>
</svg>

<svg width="200" height="160" viewBox="0 0 200 160" fill="none" xmlns="http://www.w3.org/2000/svg" class="svg__illustration-borrowing-books">
  <path d="M47.057 126.249h66.183M118.756 126.249h12.034M135.802 126.249h4.011" stroke="#00E0E0" stroke-width="1.5" class="svg__stroke--help-green-03"/>
  <path d="m84.54 144.675 1.096.568V126.251H67.351V145.243l1.096-.568 8.047-4.175 8.047 4.175Z" fill="#0AA5FF" stroke="#0AA5FF" stroke-width="1.5" stroke-linecap="square" class="svg__fill--default-cyan-03 svg__stroke--default-cyan-03"/>
  <path fill-rule="evenodd" clip-rule="evenodd" d="m179.744 154.844.177.066H44.551c-11.355 0-20.56-9.205-20.56-20.56 0-11.354 9.205-20.559 20.56-20.559h135.37s-1.303.451-3.129 1.5c-4.273 2.454-11.411 8.182-11.411 19.059 0 10.782 7.013 16.504 11.298 18.994h9.763v1.5h-6.698Zm-8.084-3.266c.79.695 1.58 1.304 2.336 1.832H44.551c-10.527 0-19.06-8.533-19.06-19.06 0-10.526 8.533-19.059 19.06-19.059h129.445a26.407 26.407 0 0 0-2.336 1.832c-3.872 3.408-7.779 8.931-7.779 17.227 0 8.297 3.907 13.82 7.779 17.228Z" fill="#0B6AB7" class="svg__fill--primary-blue-03"/>
  <path d="M37.08 6.655h135.074a7.25 7.25 0 0 1 7.25 7.25v90.649H29.83V13.905a7.25 7.25 0 0 1 7.25-7.25Z" stroke="#0B6AB7" stroke-width="1.5" class="svg__stroke--primary-blue-03"/>
  <path d="M38.049 11.208H171.19a3.25 3.25 0 0 1 3.25 3.25V100H34.799V14.458a3.25 3.25 0 0 1 3.25-3.25Z" stroke="#0AA5FF" stroke-width="1.5" class="svg__stroke--default-cyan-03"/>
  <path d="M11.294 104.671h185.82v2.632a7.25 7.25 0 0 1-7.25 7.25H18.544a7.25 7.25 0 0 1-7.25-7.25v-2.632Z" stroke="#0B6AB7" stroke-width="1.5" class="svg__stroke--primary-blue-03"/>
  <path d="m44.162 35.644 15.416-15.416M44.941 28.706l7.708-7.709M44.418 23.053l2.569-2.57" stroke="#00E0E0" stroke-width="1.5" class="svg__stroke--help-green-03"/>
  <path d="m174.189 13.89-29.496 12.218-12.218 29.496 12.218 29.497 29.496 12.218" stroke="#FFD600" stroke-width="1.5" class="svg__stroke--secondary-yellow-03"/>
</svg>
